X: 10
T:Nonesuch
% Nottingham Music Database
S:Playford
M:4/4
L:1/4
K:Dm
a|"Dm"af ga|"Dm"fe/2f/2 da|"Dm"af ga|"Dm"f2 fa|"F"af ga|
"Dm"fe/2f/2 da|"F"af ga|"Dm"f2 de|"C"ec de|"Dm"fe/2f/2 de|
"Am"ec de|"Dm"f2 de|"C"ec de|"Dm"fe/2f/2 de|"Am"ec de|"Dm"f2 d||


